icons/stock_out.svg

<svg width="48" height="48" viewBox="0 0 48 48" fill="none" xmlns="http://www.w3.org/2000/svg">
<path d="M27.707 7.70711C28.0975 7.31658 28.0975 6.68342 27.707 6.29289C27.3165 5.90237 26.6833 5.90237 26.2928 6.29289L24.0001 8.58554L21.7075 6.29289C21.317 5.90237 20.6838 5.90237 20.2933 6.29289C19.9027 6.68342 19.9027 7.31658 20.2933 7.70711L22.5859 9.99976L20.2931 12.2925C19.9026 12.683 19.9026 13.3162 20.2931 13.7067C20.6837 14.0973 21.3168 14.0973 21.7074 13.7067L24.0001 11.414L26.2929 13.7067C26.6834 14.0973 27.3166 14.0973 27.7071 13.7067C28.0976 13.3162 28.0976 12.683 27.7071 12.2925L25.4143 9.99976L27.707 7.70711Z" fill="black"/>
<path fill-rule="evenodd" clip-rule="evenodd" d="M6.68378 26.4487L10 27.5541V36C10 36.4262 10.2701 36.8056 10.6729 36.945L23.6649 41.4422C23.8636 41.5131 24.086 41.5217 24.3015 41.4535L24.3161 41.4487L24.3313 41.4436L37.3271 36.945C37.7299 36.8056 38 36.4262 38 36V27.5541L41.3162 26.4487C41.6264 26.3453 41.8665 26.0968 41.9591 25.7832C42.0517 25.4697 41.9851 25.1306 41.7809 24.8753L37.7809 19.8753C37.6595 19.7236 37.5003 19.6145 37.3249 19.5542L24.3271 15.055C24.1152 14.9817 23.8848 14.9817 23.6729 15.055L10.6751 19.5543C10.4997 19.6145 10.3405 19.7236 10.2191 19.8753L6.21914 24.8753C6.01489 25.1306 5.94836 25.4697 6.04096 25.7832C6.13356 26.0968 6.3736 26.3453 6.68378 26.4487ZM21.3192 30.5735L23 28.1724V39.0956L12 35.2879V28.2208L20.1838 30.9487C20.6036 31.0886 21.0655 30.936 21.3192 30.5735ZM14.0571 20.5L24 23.9418L33.9429 20.5L24 17.0582L14.0571 20.5ZM26.6808 30.5735L25 28.1724V39.0956L36 35.2879V28.2208L27.8162 30.9487C27.3964 31.0886 26.9345 30.936 26.6808 30.5735ZM11.3399 21.6759L8.67677 25.0048L14.1881 26.8419L20.1086 28.8154L22.4212 25.5117L22.2861 25.465L11.3399 21.6759ZM39.3232 25.0048L36.6601 21.6759L25.5789 25.5117L27.8915 28.8154L39.3232 25.0048Z" fill="black"/>
</svg>

<svg
  xmlns="http://www.w3.org/2000/svg"
  width="24"
  height="24"
  viewBox="0 0 24 24"
  fill="none"
  stroke="currentColor"
  stroke-width="2"
  stroke-linecap="round"
  stroke-linejoin="round"
>
  <path d="M27.707 7.707a1 1 0 0 0-1.414-1.414L24 8.586l-2.293-2.293a1 1 0 1 0-1.414 1.414L22.586 10l-2.293 2.293a1 1 0 0 0 1.414 1.414L24 11.414l2.293 2.293a1 1 0 1 0 1.414-1.415L25.414 10z" />
  <path
    fill-rule="evenodd"
    d="M6.684 26.449 10 27.554V36a1 1 0 0 0 .673.945l12.992 4.497c.199.071.421.08.637.011l.014-.004.015-.005 12.996-4.499A1 1 0 0 0 38 36v-8.446l3.316-1.105a1 1 0 0 0 .465-1.574l-4-5a1 1 0 0 0-.456-.32l-12.998-4.5a1 1 0 0 0-.654 0l-12.998 4.5a1 1 0 0 0-.456.32l-4 5a1 1 0 0 0 .465 1.574m14.635 4.124 1.681-2.4v10.923l-11-3.808V28.22l8.184 2.728a1 1 0 0 0 1.135-.376M14.057 20.5 24 23.942l9.943-3.442L24 17.058zm12.624 10.074L25 28.172v10.924l11-3.808V28.22l-8.184 2.728a1 1 0 0 1-1.135-.376M11.34 21.676l-2.663 3.329 5.511 1.837 5.92 1.973 2.313-3.303-.135-.047zm27.983 3.329-2.663-3.33-11.081 3.837 2.313 3.303z"
    clip-rule="evenodd"
  />
</svg>
